build/Karasa-Jaga/scalable/actions/help-about-symbolic.svg

<svg height="16" width="16" xmlns="http://www.w3.org/2000/svg"><path d="m7.8915908 1.4361562a.42595264.42282914 0 0 0 -.3878854.2375406l-1.9406209 3.9380586-4.3694277.647654a.42595264.42282914 0 0 0 -.23366756.7226042l3.17344876 3.0497094-.731276 4.328336a.42595264.42282914 0 0 0 .6203349.441928l3.9027968-2.054784 3.9191493 2.027263a.42595264.42282914 0 0 0 .615341-.447601l-.761272-4.320052 3.153233-3.0746749a.42595264.42282914 0 0 0 -.237231-.7192327l-4.377139-.6158293-1.9688267-3.9285118a.42595264.42282914 0 0 0 -.3769575-.2324081z" fill="#bebebe"/></svg>

<?xml version="1.0" encoding="UTF-8" standalone="no"?>
<!-- Created with Inkscape (http://www.inkscape.org/) -->

<svg
   xmlns:dc="http://purl.org/dc/elements/1.1/"
   xmlns:cc="http://creativecommons.org/ns#"
   xmlns:rdf="http://www.w3.org/1999/02/22-rdf-syntax-ns#"
   xmlns:svg="http://www.w3.org/2000/svg"
   xmlns="http://www.w3.org/2000/svg"
   xmlns:xlink="http://www.w3.org/1999/xlink"
   xmlns:sodipodi="http://sodipodi.sourceforge.net/DTD/sodipodi-0.dtd"
   xmlns:inkscape="http://www.inkscape.org/namespaces/inkscape"
   id="svg7384"
   height="16"
   width="16"
   version="1.1"
   inkscape:version="0.92.2 (unknown)"
   sodipodi:docname="help-about-symbolic.svg">
  <defs
     id="defs10">
    <linearGradient
       id="linearGradient4565">
      <stop
         style="stop-color:#161616;stop-opacity:1;"
         offset="0"
         id="stop4567" />
      <stop
         style="stop-color:#3a3a3a;stop-opacity:1;"
         offset="1"
         id="stop4569" />
    </linearGradient>
    <linearGradient
       id="linearGradient3569">
      <stop
         style="stop-color:#161616;stop-opacity:1;"
         offset="0"
         id="stop3571" />
      <stop
         style="stop-color:#3a3a3a;stop-opacity:1;"
         offset="1"
         id="stop3573" />
    </linearGradient>
    <linearGradient
       y2="-40.636906"
       x2="54.675591"
       y1="40.918156"
       x1="136.23065"
       gradientUnits="userSpaceOnUse"
       id="linearGradient4548"
       xlink:href="#linearGradient3569"
       inkscape:collect="always" />
  </defs>
  <sodipodi:namedview
     pagecolor="#ffffff"
     bordercolor="#666666"
     borderopacity="1"
     objecttolerance="10"
     gridtolerance="10"
     guidetolerance="10"
     inkscape:pageopacity="0"
     inkscape:pageshadow="2"
     inkscape:window-width="1317"
     inkscape:window-height="716"
     id="namedview8"
     showgrid="false"
     inkscape:zoom="10.429825"
     inkscape:cx="-13.510725"
     inkscape:cy="15.513303"
     inkscape:window-x="49"
     inkscape:window-y="27"
     inkscape:window-maximized="1"
     inkscape:current-layer="svg7384" />
  <metadata
     id="metadata90">
    <rdf:RDF>
      <cc:Work
         rdf:about="">
        <dc:format>image/svg+xml</dc:format>
        <dc:type
           rdf:resource="http://purl.org/dc/dcmitype/StillImage" />
        <dc:title>Gnome Symbolic Icon Theme</dc:title>
      </cc:Work>
    </rdf:RDF>
  </metadata>
  <title
     id="title9167">Gnome Symbolic Icon Theme</title>
  <path
     style="opacity:1;fill:#bebebe;fill-opacity:1;stroke:none;stroke-width:1.45521224"
     d="M 7.8915908,1.4361562 A 0.42595264,0.42282914 0 0 0 7.5037054,1.6736968 L 5.5630845,5.6117554 1.1936568,6.2594094 A 0.42595264,0.42282914 0 0 0 0.95998924,6.9820136 L 4.133438,10.031723 3.402162,14.360059 a 0.42595264,0.42282914 0 0 0 0.6203349,0.441928 l 3.9027968,-2.054784 3.9191493,2.027263 a 0.42595264,0.42282914 0 0 0 0.615341,-0.447601 L 11.698512,10.006813 14.851745,6.9321381 A 0.42595264,0.42282914 0 0 0 14.614514,6.2129054 L 10.237375,5.5970761 8.2685483,1.6685643 A 0.42595264,0.42282914 0 0 0 7.8915908,1.4361562 Z"
     id="path3041"
     inkscape:connector-curvature="0" />
</svg>
